X: 3690
T: Billy McCormack's
R: jig
M: 6/8
K: Gmajor
|:E|ABG Azg|ede gdB|G3 BAG|dB/A/G AGE|
ABG A z g|edB def|g z e fdB|BAG A z:|
g|a3 bge|a3 bge|g3 gdB|GAB deg|
a z a age|edB def|g z e fdB|BAG A z e|
a3 bge|abc' bge|g3 gdB|G(3A/B/c/d efg|
a3 age|edB def|g z e fdB|BA/G/E A2|

